**kern	**silbe	**harmony	**phrase	**leadinstrument	**rhyme	**timestamp	**harte
*ICvox	*	*M4/4	*	*	*	*	*M4/4
*VRlead	*	*	*	*	*	*	*
*Hstimme	*	*	*	*	*	*	*
*G:	*	*e:	*e:	*e:	*	*e:	*e:
*M4/4	*	*	*	*	*	*	*
*clefF4	*	*	*	*	*	*	*
r;	.	1r;	.	r	.	0	N.C.
=1	=1	=1	=1	=1	=1	=1	=1
*>Letter>A	*>Letter>A	*>Letter>A	*>Letter>A	*>Letter>A	*>Letter>A	*>Letter>A	*>Letter>A
*>Label>Intro	*>Label>Intro	*>Label>Intro	*>Label>Intro	*>Label>Intro	*>Label>Intro	*>Label>Intro	*>Label>Intro
1r	.	1Em	newline	guitar	.	0.279	E:min/b3
=2	=2	=2	=2	=2	=2	=2	=2
1r	.	1Em	.	guitar	.	23.018	E:min/b3
=3	=3	=3	=3	=3	=3	=3	=3
1r	.	1Em	.	guitar	.	23.28	E:min/b3
=4	=4	=4	=4	=4	=4	=4	=4
1r	.	1Em	.	guitar	.	25.371	E:min/b3
=5	=5	=5	=5	=5	=5	=5	=5
1r	.	1Em	.	guitar	.	27.462	E:min/b3
=6	=6	=6	=6	=6	=6	=6	=6
1r	.	1Em	.	guitar	.	29.553	E:min/b3
=7	=7	=7	=7	=7	=7	=7	=7
1r	.	1Am	.	guitar	.	31.644	A:min/b3
=8	=8	=8	=8	=8	=8	=8	=8
2r	.	1Em	.	guitar	.	33.735	E:min/5
4r	.	.	.	.	.	.	.
4F#	I'd	.	.	.	.	.	.
=9	=9	=9	=9	=9	=9	=9	=9
*>Letter>B	*>Letter>B	*>Letter>B	*>Letter>B	*>Letter>B	*>Letter>B	*>Letter>B	*>Letter>B
*>Label>Verse	*>Label>Verse	*>Label>Verse	*>Label>Verse	*>Label>Verse	*>Label>Verse	*>Label>Verse	*>Label>Verse
4E	ra-	1Em	.	r	.	40.008	E:min/5
4D#	-ther	.	.	.	.	.	.
4E	be	.	.	.	.	.	.
4F#	a	.	.	.	.	.	.
=10	=10	=10	=10	=10	=10	=10	=10
4G	spar-	1Em	.	r	.	42.098	E:min/5
4F#	-row	.	.	.	.	.	.
4G	than	.	.	.	.	.	.
4A	a	.	.	.	.	.	.
=11	=11	=11	=11	=11	=11	=11	=11
1B	snail.	1GM	newline	r	A	44.188	G:maj
=12	=12	=12	=12	=12	=12	=12	=12
2r	.	1GM	.	r	.	45.868	G:maj
8d	Yes,	.	.	.	.	.	.
4.d	I	.	.	.	.	.	.
=13	=13	=13	=13	=13	=13	=13	=13
8Aq	_	.	.	.	.	.	.
2B	would	1GM	newline	r	B	47.549	G:maj
2r	.	.	.	.	.	.	.
=14	=14	=14	=14	=14	=14	=14	=14
2r	.	1GM	.	r	.	49.167	G:maj
8e	if	.	.	.	.	.	.
4.d	I	.	.	.	.	.	.
=15	=15	=15	=15	=15	=15	=15	=15
2.B	could...	1GM	.	r	B	50.786	G:maj
4r	.	.	.	.	.	.	.
=16	=16	=16	=16	=16	=16	=16	=16
4r	.	1GM	.	r	.	52.405	G:maj
4B	I	.	.	.	.	.	.
4A	sure-	.	.	.	.	.	.
8G	-ly	.	.	.	.	.	.
[8A	would	.	.	.	B	.	.
=17	=17	=17	=17	=17	=17	=17	=17
8A]	_	1Em	newline	r	.	54.024	E:min
8G	_	.	.	.	.	.	.
[4E	_	.	.	.	.	.	.
2E]	_	.	.	.	.	.	.
=18	=18	=18	=18	=18	=18	=18	=18
2r	.	1Em	.	r	.	55.66	E:min
8A	Mmm	.	.	.	.	.	.
[8B	_	.	.	.	.	.	.
4B]	_	.	.	.	.	.	.
=19	=19	=19	=19	=19	=19	=19	=19
8A	_	1Em	.	r	.	57.296	E:min
8G	_	.	.	.	.	.	.
[4E	_	.	.	.	.	.	.
2E]	_	.	.	.	.	.	.
=20	=20	=20	=20	=20	=20	=20	=20
2r	.	1Em	.	r	.	58.932	E:min
4r	.	.	.	.	.	.	.
4BB	I'd	.	.	.	.	.	.
=21	=21	=21	=21	=21	=21	=21	=21
*>Letter>B	*>Letter>B	*>Letter>B	*>Letter>B	*>Letter>B	*>Letter>B	*>Letter>B	*>Letter>B
*>Label>Verse	*>Label>Verse	*>Label>Verse	*>Label>Verse	*>Label>Verse	*>Label>Verse	*>Label>Verse	*>Label>Verse
4E	ra-	1Em	newline	r	.	60.568	E:min
4D#	-ther	.	.	.	.	.	.
4E	be	.	.	.	.	.	.
8F#	a	.	.	.	.	.	.
[8G	ham-	.	.	.	.	.	.
=22	=22	=22	=22	=22	=22	=22	=22
4G]	_	1Em	.	r	.	62.187	E:min
4F#	-mer	.	.	.	.	.	.
4G	than	.	.	.	.	.	.
8A	a	.	.	.	.	.	.
[8B	nail	.	.	.	A	.	.
=23	=23	=23	=23	=23	=23	=23	=23
4B_	_	1GM	newline	r	.	63.806	G:maj
12B]	_	.	.	.	.	.	.
12A	_	.	.	.	.	.	.
[12G	_	.	.	.	.	.	.
2G]	_	.	.	.	.	.	.
=24	=24	=24	=24	=24	=24	=24	=24
2r	.	1GM	.	r	.	65.367	G:maj
8e	Yes,	.	.	.	.	.	.
4.d	I	.	.	.	.	.	.
=25	=25	=25	=25	=25	=25	=25	=25
8Aq	_	.	.	.	.	.	.
2.B	would	1GM	newline	r	B	66.928	G:maj
4r	.	.	.	.	.	.	.
=26	=26	=26	=26	=26	=26	=26	=26
4r	.	1GM	.	r	.	68.555	G:maj
8e	if	.	.	.	.	.	.
8d	I	.	.	.	.	.	.
4e	on-	.	.	.	.	.	.
8d	-ly	.	.	.	.	.	.
[8e	could,	.	.	.	B	.	.
=27	=27	=27	=27	=27	=27	=27	=27
8e]	_	1GM	.	r	.	70.182	G:maj
8d	_	.	.	.	.	.	.
[4B	_	.	.	.	.	.	.
2B_	_	.	.	.	.	.	.
=28	=28	=28	=28	=28	=28	=28	=28
4B]	_	1GM	.	r	.	71.809	G:maj
4B	I	.	.	.	.	.	.
4A	sure-	.	.	.	.	.	.
8G	-ly	.	.	.	.	.	.
[8A	would	.	.	.	B	.	.
=29	=29	=29	=29	=29	=29	=29	=29
8A]	_	1Em	newline	r	.	73.436	E:min
8G	_	.	.	.	.	.	.
[4E	_	.	.	.	.	.	.
2E]	_	.	.	.	.	.	.
=30	=30	=30	=30	=30	=30	=30	=30
2r	.	1Em	.	r	.	75.07	E:min
8A	Mmm	.	.	.	.	.	.
[8B	_	.	.	.	.	.	.
4B]	_	.	.	.	.	.	.
=31	=31	=31	=31	=31	=31	=31	=31
8A	_	1Em	.	r	.	76.703	E:min
8G	_	.	.	.	.	.	.
[4E	_	.	.	.	.	.	.
2E]	_	.	.	.	.	.	.
=32	=32	=32	=32	=32	=32	=32	=32
2r	.	1Em	.	r	.	78.337	E:min
4r	.	.	.	.	.	.	.
4B	A-	.	.	.	.	.	.
=33	=33	=33	=33	=33	=33	=33	=33
*>Letter>C	*>Letter>C	*>Letter>C	*>Letter>C	*>Letter>C	*>Letter>C	*>Letter>C	*>Letter>C
*>Label>Chorus	*>Label>Chorus	*>Label>Chorus	*>Label>Chorus	*>Label>Chorus	*>Label>Chorus	*>Label>Chorus	*>Label>Chorus
2.e	-way,	1CM	newline	r	.	79.97	C:maj6
4d	I'd	.	.	.	.	.	.
=34	=34	=34	=34	=34	=34	=34	=34
4.e	ra-	1CM	.	r	.	81.586	C:maj6
8d	-ther	.	.	.	.	.	.
4.e	sail	.	.	.	A	.	.
8g	a-	.	.	.	.	.	.
=35	=35	=35	=35	=35	=35	=35	=35
4.g	-way,	1CM	.	r	.	83.201	C:maj6
8f#	_	.	.	.	.	.	.
[2e	_	.	.	.	.	.	.
=36	=36	=36	=36	=36	=36	=36	=36
4e]	_	1CM	.	r	.	84.817	C:maj6
4r	.	.	.	.	.	.	.
16eQ	_	.	.	.	.	.	.
16f#Q	_	.	.	.	.	.	.
4g	like	.	.	.	.	.	.
4e	a	.	.	.	.	.	.
=37	=37	=37	=37	=37	=37	=37	=37
12d	swan	1GM	newline	r	C	86.433	G:maj
12e	_	.	.	.	.	.	.
[12d	_	.	.	.	.	.	.
2.d_	_	.	.	.	.	.	.
=38	=38	=38	=38	=38	=38	=38	=38
4d]	_	1GM	.	r	.	88.05	G:maj
4d	that's	.	.	.	.	.	.
16d#Q	_	.	.	.	.	.	.
4e	here	.	.	.	.	.	.
4d	and	.	.	.	.	.	.
=39	=39	=39	=39	=39	=39	=39	=39
[1B	gone	1GM	.	r	C	89.668	G:maj
=40	=40	=40	=40	=40	=40	=40	=40
2B]	_	1GM	.	r	.	91.286	G:maj
4r	.	.	.	.	.	.	.
4B	A	.	.	.	.	.	.
=41	=41	=41	=41	=41	=41	=41	=41
2.e	man	1CM	newline	r	.	92.904	C:maj6
4d	gets	.	.	.	.	.	.
=42	=42	=42	=42	=42	=42	=42	=42
4e	tied	1CM	.	r	.	94.483	C:maj6
4d	up	.	.	.	.	.	.
4.e	to	.	.	.	.	.	.
8d	the	.	.	.	.	.	.
=43	=43	=43	=43	=43	=43	=43	=43
1e	ground,	1CM	.	r	D	96.061	C:maj6
=44	=44	=44	=44	=44	=44	=44	=44
4r	.	1CM	.	r	.	97.64	C:maj6
4e	he	.	.	.	.	.	.
4.g	gives	.	.	.	.	.	.
8e	the	.	.	.	.	.	.
=45	=45	=45	=45	=45	=45	=45	=45
[1d	world	1GM	newline	r	.	99.219	G:maj
=46	=46	=46	=46	=46	=46	=46	=46
4d]	_	1GM	.	r	.	100.881	G:maj
4d	its	.	.	.	.	.	.
4e	sad-	.	.	.	.	.	.
4d	-dest	.	.	.	.	.	.
=47	=47	=47	=47	=47	=47	=47	=47
1B	sound,	1GM	.	r	D	102.543	G:maj
=48	=48	=48	=48	=48	=48	=48	=48
4r	.	1GM	.	r	.	104.205	G:maj
8Aq	_	.	.	.	.	.	.
4B	it's	.	.	.	.	.	.
4A	sad-	.	.	.	.	.	.
4G	-dest	.	.	.	.	.	.
=49	=49	=49	=49	=49	=49	=49	=49
8A	sound	1Em	newline	r	D	105.867	E:min
8G	_	.	.	.	.	.	.
[4E	_	.	.	.	.	.	.
2E]	_	.	.	.	.	.	.
=50	=50	=50	=50	=50	=50	=50	=50
2r	.	1Em	.	r	.	107.508	E:min
8Aq	_	.	.	.	.	.	.
2B	hmm	.	.	.	.	.	.
=51	=51	=51	=51	=51	=51	=51	=51
8Aq	_	.	.	.	.	.	.
1B	_	1Em	.	r	.	109.149	E:min
=52	=52	=52	=52	=52	=52	=52	=52
1r	.	1Em	.	r	.	110.79	E:min
=53	=53	=53	=53	=53	=53	=53	=53
1r	.	1Em	newline	r	.	112.431	E:min
=54	=54	=54	=54	=54	=54	=54	=54
2r	.	1Em	.	r	.	114.052	E:min
4r	.	.	.	.	.	.	.
4BB	I'd	.	.	.	.	.	.
=55	=55	=55	=55	=55	=55	=55	=55
*>Letter>B	*>Letter>B	*>Letter>B	*>Letter>B	*>Letter>B	*>Letter>B	*>Letter>B	*>Letter>B
*>Label>Verse	*>Label>Verse	*>Label>Verse	*>Label>Verse	*>Label>Verse	*>Label>Verse	*>Label>Verse	*>Label>Verse
4E	ra-	1Em	newline	r	.	115.673	E:min
4D#	-ther	.	.	.	.	.	.
4E	be	.	.	.	.	.	.
8F#	a	.	.	.	.	.	.
[8G	fo-	.	.	.	.	.	.
=56	=56	=56	=56	=56	=56	=56	=56
4G]	_	1Em	.	r	.	117.289	E:min
4F#	-rest	.	.	.	.	.	.
4G	than	.	.	.	.	.	.
4A	a	.	.	.	.	.	.
=57	=57	=57	=57	=57	=57	=57	=57
4B	street.	1GM	newline	r	E	118.905	G:maj
4r	.	.	.	.	.	.	.
2r	.	.	.	.	.	.	.
=58	=58	=58	=58	=58	=58	=58	=58
2r	.	1GM	.	r	.	120.552	G:maj
8e	Yes,	.	.	.	.	.	.
4.d	I	.	.	.	.	.	.
=59	=59	=59	=59	=59	=59	=59	=59
8Aq	_	.	.	.	.	.	.
2B	would	1GM	newline	r	B	122.2	G:maj
2r	.	.	.	.	.	.	.
=60	=60	=60	=60	=60	=60	=60	=60
2r	.	1GM	.	r	.	123.842	G:maj
8e	if	.	.	.	.	.	.
[8d	I	.	.	.	.	.	.
8d]	_	.	.	.	.	.	.
[8e	could,	.	.	.	B	.	.
=61	=61	=61	=61	=61	=61	=61	=61
8e]	_	1GM	.	r	.	125.484	G:maj
[8d	_	.	.	.	.	.	.
8d]	_	.	.	.	.	.	.
[8B	_	.	.	.	.	.	.
2B_	_	.	.	.	.	.	.
=62	=62	=62	=62	=62	=62	=62	=62
4B]	_	1GM	.	r	.	127.126	G:maj
4B	I	.	.	.	.	.	.
4A	sure-	.	.	.	.	.	.
8G	-ly	.	.	.	.	.	.
[8A	would	.	.	.	B	.	.
=63	=63	=63	=63	=63	=63	=63	=63
8A]	_	1Em	newline	r	.	128.769	E:min
8G	_	.	.	.	.	.	.
2.E	_	.	.	.	.	.	.
=64	=64	=64	=64	=64	=64	=64	=64
2r	.	1Em	.	r	.	130.373	E:min
4r	.	.	.	.	.	.	.
4BB	I'd	.	.	.	.	.	.
=65	=65	=65	=65	=65	=65	=65	=65
*>Letter>B	*>Letter>B	*>Letter>B	*>Letter>B	*>Letter>B	*>Letter>B	*>Letter>B	*>Letter>B
*>Label>Verse	*>Label>Verse	*>Label>Verse	*>Label>Verse	*>Label>Verse	*>Label>Verse	*>Label>Verse	*>Label>Verse
4E	ra-	1Em	newline	r	.	131.977	E:min
8D#	-ther	.	.	.	.	.	.
[8E	feel	.	.	.	.	.	.
4E]	_	.	.	.	.	.	.
8F#	the	.	.	.	.	.	.
[8G	earth	.	.	.	.	.	.
=66	=66	=66	=66	=66	=66	=66	=66
4G]	_	1Em	.	r	.	133.564	E:min
8F#	be	.	.	.	.	.	.
[8G	neath	.	.	.	.	.	.
8G]	_	.	.	.	.	.	.
[8A	my	.	.	.	.	.	.
4A]	_	.	.	.	.	.	.
=67	=67	=67	=67	=67	=67	=67	=67
4B	feet.	1GM	newline	r	E	135.15	G:maj
4r	.	.	.	.	.	.	.
2r	.	.	.	.	.	.	.
=68	=68	=68	=68	=68	=68	=68	=68
2r	.	1GM	.	r	.	136.805	G:maj
8e	Yes,	.	.	.	.	.	.
4.d	I	.	.	.	.	.	.
=69	=69	=69	=69	=69	=69	=69	=69
8Aq	_	.	.	.	.	.	.
2.B	would	1GM	newline	r	B	138.459	G:maj
4r	.	.	.	.	.	.	.
=70	=70	=70	=70	=70	=70	=70	=70
6r	.	1GM	.	r	.	140.113	G:maj
6e	if	.	.	.	.	.	.
6d	I	.	.	.	.	.	.
4e	on-	.	.	.	.	.	.
8d	-ly	.	.	.	.	.	.
[8e	could,	.	.	.	B	.	.
=71	=71	=71	=71	=71	=71	=71	=71
8e]	_	1GM	.	r	.	141.766	G:maj
[8d	_	.	.	.	.	.	.
8d]	_	.	.	.	.	.	.
[8B	_	.	.	.	.	.	.
2B_	_	.	.	.	.	.	.
=72	=72	=72	=72	=72	=72	=72	=72
4B]	_	1GM	.	r	.	143.42	G:maj
4B	I	.	.	.	.	.	.
4A	sure-	.	.	.	.	.	.
8G	-ly	.	.	.	.	.	.
8A	would	.	.	.	B	.	.
=73	=73	=73	=73	=73	=73	=73	=73
8A	_	1Em	newline	voice	.	145.073	E:min
[8G	_	.	.	.	.	.	.
4G]	_	.	.	.	.	.	.
2E	_	.	.	.	.	.	.
=74	=74	=74	=74	=74	=74	=74	=74
1r	.	1Em	.	voice	.	146.69	E:min
=75	=75	=75	=75	=75	=75	=75	=75
*>Letter>C	*>Letter>C	*>Letter>C	*>Letter>C	*>Letter>C	*>Letter>C	*>Letter>C	*>Letter>C
*>Label>Chorus	*>Label>Chorus	*>Label>Chorus	*>Label>Chorus	*>Label>Chorus	*>Label>Chorus	*>Label>Chorus	*>Label>Chorus
1r	.	1CM	newline	flute	.	148.307	C:maj6
=76	=76	=76	=76	=76	=76	=76	=76
1r	.	1CM	.	flute	.	149.931	C:maj6
=77	=77	=77	=77	=77	=77	=77	=77
1r	.	1CM	.	flute	.	151.555	C:maj6
=78	=78	=78	=78	=78	=78	=78	=78
1r	.	1CM	.	flute	.	153.178	C:maj6
=79	=79	=79	=79	=79	=79	=79	=79
1r	.	1GM	newline	flute	.	154.802	G:maj
=80	=80	=80	=80	=80	=80	=80	=80
1r	.	1GM	.	flute	.	156.443	G:maj
=81	=81	=81	=81	=81	=81	=81	=81
1r	.	1GM	.	flute	.	158.083	G:maj
=82	=82	=82	=82	=82	=82	=82	=82
1r	.	1GM	.	flute	.	159.724	G:maj
=83	=83	=83	=83	=83	=83	=83	=83
1r	.	1CM	newline	flute	.	161.365	C:maj6
=84	=84	=84	=84	=84	=84	=84	=84
1r	.	1CM	.	flute	.	162.958	C:maj6
=85	=85	=85	=85	=85	=85	=85	=85
1r	.	1CM	.	flute	.	164.55	C:maj6
=86	=86	=86	=86	=86	=86	=86	=86
1r	.	1CM	.	flute	.	166.143	C:maj6
=87	=87	=87	=87	=87	=87	=87	=87
1r	.	1GM	newline	flute	.	167.736	G:maj
=88	=88	=88	=88	=88	=88	=88	=88
1r	.	1GM	.	flute	.	169.382	G:maj
=89	=89	=89	=89	=89	=89	=89	=89
1r	.	1GM	.	flute	.	171.029	G:maj
=90	=90	=90	=90	=90	=90	=90	=90
1r	.	1GM	.	flute	.	172.675	G:maj
=91	=91	=91	=91	=91	=91	=91	=91
1r	.	1Em	newline	flute	.	174.322	E:min
=92	=92	=92	=92	=92	=92	=92	=92
1r	.	1Em	.	flute	.	175.999	E:min
=93	=93	=93	=93	=93	=93	=93	=93
1r	.	1Em	.	flute	.	177.676	E:min
=94	=94	=94	=94	=94	=94	=94	=94
1r	.	1Em	.	flute	.	179.354	E:min
=95	=95	=95	=95	=95	=95	=95	=95
1r	.	1Em	newline	flute	.	181.031	E:min
=96	=96	=96	=96	=96	=96	=96	=96
1r	.	1Em	.	flute	.	182.729	E:min
r;	.	1r;	.	r	.	185.063	N.C.
r;	.	1r;	.	r	.	188.526	N.C.
*-	*-	*-	*-	*-	*-	*-	*-
!!!BillboardChartDate: 1970/09/26
!!!BillboardPeak: 18
!!!BillboardWeeksOnChart: 11
!!!COC: Simon & Garfunkel
!!!ENC: Nathaniel Condit-Schultz
!!!EST: Awating manual error checking and editing.
!!!OTL: El Condor Pasa
!!!RDF**chordsym: original McGill chord annotation + (implied pitch class set, with bass pitch in first position)
!!!RDF**harmony: **recip + pitch class of root + harmonic quality
!!!RDF**leadinstrument: original McGill primary instrumentation annotation
!!!RDF**phrase: newline = linebreak in original McGill transcription
!!!RDF**timestamp: McGill audio timestamp in seconds
!!!RDT: 2017/01/12/
!!!SampleActualRank: 38
!!!SampleID#: 1261
!!!SampleTargetRank: 38
